app/assets/vector/apps/de/ios.svg

<svg width="139" height="44" viewBox="0 0 139 44" fill="none" xmlns="http://www.w3.org/2000/svg">
<g filter="url(#filter0_d)">
<path d="M132.197 41H6.729C4.1182 40.9939 2.00385 38.8778 2 36.267V5.726C2.00386 3.11633 4.11933 1.0022 6.729 1H132.197C134.803 1 137 3.12 137 5.726V36.267C137 38.872 134.803 41 132.197 41Z" fill="white"/>
<path d="M132.197 40.5H6.73016C4.39488 40.4946 2.50363 38.6019 2.5 36.2666V5.72639C2.50364 3.39264 4.39545 1.50208 6.72922 1.5H132.197C134.537 1.5 136.5 3.40657 136.5 5.726V36.267C136.5 38.5864 134.536 40.5 132.197 40.5Z" stroke="black" stroke-opacity="0.1"/>
</g>
<path fill-rule="evenodd" clip-rule="evenodd" d="M30.2349 7.21698C30.4009 8.72598 29.8029 10.213 28.9289 11.306C28.0169 12.382 26.5579 13.204 25.1369 13.099C24.9509 11.647 25.6709 10.103 26.4769 9.16098C27.3879 8.09198 28.9699 7.27298 30.2349 7.21698ZM34.8868 15.9209C34.7282 16.0155 32.1002 17.5841 32.1289 20.783C32.1619 24.647 35.5079 25.923 35.5489 25.936C35.5289 26.026 35.0249 27.78 33.7699 29.559C32.7219 31.127 31.6239 32.659 29.8799 32.686C29.0508 32.7051 28.491 32.4669 27.9076 32.2187C27.2991 31.9598 26.6649 31.69 25.6729 31.69C24.6216 31.69 23.9594 31.9685 23.3209 32.2371C22.7685 32.4694 22.2337 32.6944 21.4799 32.725C19.8189 32.787 18.5499 31.053 17.4639 29.5C15.2929 26.329 13.6029 20.564 15.8689 16.641C16.9669 14.717 18.9689 13.478 21.1089 13.445C22.0513 13.4257 22.9551 13.7889 23.7475 14.1073C24.3534 14.3507 24.8941 14.568 25.3369 14.568C25.7259 14.568 26.2515 14.3594 26.864 14.1163C27.8292 13.7332 29.0105 13.2643 30.2139 13.391C31.0369 13.415 33.3789 13.716 34.8899 15.919L34.8868 15.9209ZM55.6809 32.502H53.4099L52.1659 28.594H47.8419L46.6569 32.502H44.4459L48.7299 19.195H51.3759L55.6809 32.502ZM50.6669 23.479L51.7919 26.954H48.2189L49.3239 23.479C49.5456 22.6458 49.7562 21.8097 49.9559 20.971H49.9959C50.3249 22.288 50.5479 23.124 50.6669 23.479ZM66.6979 27.586C66.6979 29.219 66.2569 30.508 65.3749 31.455C64.5849 32.299 63.6039 32.719 62.4329 32.719C61.1689 32.719 60.2609 32.266 59.7079 31.358H59.6679V36.413H57.5359V26.066C57.5359 25.039 57.5089 23.986 57.4569 22.906H59.3319L59.4509 24.427H59.4909C60.2019 23.281 61.2809 22.708 62.7289 22.708C63.8609 22.708 64.8059 23.155 65.5619 24.051C66.3179 24.947 66.6979 26.125 66.6979 27.586ZM63.8939 25.355C64.3159 25.961 64.5259 26.73 64.5259 27.665C64.5259 28.679 64.3009 29.494 63.8539 30.113C63.4069 30.732 62.7819 31.041 61.9789 31.041C61.2949 31.041 60.7389 30.801 60.3109 30.32C59.8829 29.839 59.6689 29.251 59.6689 28.553V26.953C59.6689 26.782 59.7019 26.566 59.7679 26.302C59.883 25.7624 60.1791 25.2783 60.6069 24.93C61.0339 24.582 61.5119 24.407 62.0379 24.407C62.8139 24.407 63.4329 24.722 63.8939 25.355ZM77.7359 27.586C77.7359 29.219 77.2949 30.508 76.4119 31.455C75.6229 32.299 74.6419 32.719 73.4709 32.719C72.2069 32.719 71.2989 32.266 70.7459 31.358H70.7069V36.413H68.5749V26.066C68.5749 25.039 68.5479 23.986 68.4959 22.906H70.3709L70.4899 24.427H70.5299C71.2409 23.281 72.3199 22.708 73.7689 22.708C74.8999 22.708 75.8449 23.155 76.6029 24.051C77.3569 24.947 77.7359 26.125 77.7359 27.586ZM74.9309 25.355C75.3529 25.961 75.5639 26.73 75.5639 27.665C75.5639 28.679 75.3389 29.494 74.8919 30.113C74.4449 30.732 73.8199 31.041 73.0169 31.041C72.3309 31.041 71.7749 30.8 71.3469 30.32C70.9199 29.839 70.7059 29.251 70.7059 28.553V26.953C70.7059 26.782 70.7399 26.566 70.8049 26.302C70.9359 25.736 71.2159 25.278 71.6439 24.93C72.0719 24.582 72.5489 24.407 73.0759 24.407C73.8529 24.407 74.4699 24.722 74.9309 25.355ZM90.0759 28.771C90.0759 29.902 89.6809 30.824 88.8939 31.535C88.0269 32.312 86.8179 32.699 85.2689 32.699C83.8369 32.699 82.6869 32.424 81.8199 31.871L82.3139 30.094C83.2479 30.66 84.2749 30.944 85.3939 30.944C86.1989 30.944 86.8239 30.762 87.2709 30.399C87.7179 30.038 87.9429 29.551 87.9429 28.946C87.9429 28.405 87.7569 27.95 87.3899 27.581C87.0209 27.212 86.4099 26.87 85.5539 26.553C83.2239 25.683 82.0579 24.411 82.0579 22.737C82.0579 21.643 82.4659 20.746 83.2829 20.047C84.0999 19.348 85.1849 18.999 86.5409 18.999C87.7519 18.999 88.7599 19.21 89.5619 19.631L89.0289 21.369C88.2789 20.961 87.4289 20.757 86.4819 20.757C85.7319 20.757 85.1459 20.942 84.7239 21.31C84.3795 21.6146 84.185 22.0542 84.1909 22.514C84.1909 23.041 84.3959 23.475 84.8039 23.817C85.1589 24.133 85.8039 24.475 86.7379 24.844C87.8839 25.305 88.7259 25.844 89.2649 26.463C89.8069 27.08 90.0759 27.85 90.0759 28.771ZM94.7729 24.506H97.1229V22.904H94.7729V20.515L92.6809 21.147V22.904H91.2789V24.504H92.6809V29.342C92.6809 30.553 92.9169 31.414 93.3919 31.928C93.8649 32.442 94.5229 32.698 95.3669 32.698C96.0499 32.698 96.6029 32.62 97.0249 32.462L96.9659 30.843C96.7139 30.91 96.3999 30.943 96.0169 30.943C95.1889 30.943 94.7729 30.35 94.7729 29.166V24.506ZM107.727 27.625C107.727 29.1 107.305 30.311 106.463 31.258C105.582 32.233 104.41 32.719 102.949 32.719C101.539 32.719 100.418 32.252 99.5819 31.319C98.7459 30.383 98.3279 29.206 98.3279 27.784C98.3279 26.298 98.7599 25.079 99.6209 24.132C100.484 23.185 101.646 22.71 103.107 22.71C104.515 22.71 105.646 23.178 106.502 24.112C107.318 25.02 107.727 26.191 107.727 27.625ZM104.944 25.418C105.325 26.05 105.516 26.81 105.516 27.695C105.516 28.579 105.318 29.346 104.925 29.991C104.464 30.768 103.825 31.159 103.009 31.159C102.178 31.159 101.534 30.777 101.073 30.011C100.692 29.379 100.501 28.619 100.501 27.734C100.501 26.823 100.692 26.051 101.073 25.418C101.52 24.653 102.173 24.27 103.028 24.27C103.858 24.27 104.497 24.652 104.944 25.418ZM114.656 24.782C114.435 24.7411 114.211 24.721 113.986 24.722C113.234 24.722 112.656 25.005 112.248 25.572C111.893 26.072 111.715 26.705 111.715 27.468V32.502H109.582L109.602 25.928C109.602 24.823 109.577 23.815 109.524 22.907H111.379L111.459 24.743H111.518C111.741 24.112 112.096 23.605 112.584 23.223C113.028 22.8902 113.568 22.7099 114.123 22.709C114.32 22.709 114.498 22.723 114.656 22.748V24.782ZM124.113 28.218C124.166 27.955 124.193 27.633 124.193 27.25C124.193 26.053 123.91 25.046 123.345 24.231C122.634 23.205 121.587 22.691 120.206 22.691C118.798 22.691 117.679 23.205 116.849 24.231C116.06 25.192 115.665 26.396 115.665 27.844C115.665 29.317 116.088 30.493 116.938 31.368C117.786 32.242 118.954 32.68 120.442 32.68C121.679 32.68 122.753 32.483 123.661 32.088L123.325 30.608C122.548 30.911 121.686 31.061 120.739 31.061C119.883 31.061 119.184 30.838 118.645 30.391C118.053 29.891 117.742 29.166 117.717 28.218H124.113ZM122.16 26.697C122.172 26.066 122.033 25.519 121.744 25.058C121.377 24.466 120.81 24.169 120.047 24.169C119.35 24.169 118.783 24.459 118.35 25.038C117.995 25.499 117.784 26.052 117.717 26.696H122.16V26.697ZM45.7119 14.432H49.4269V13.549H46.7599V7.89398H45.7119V14.432ZM54.3649 14.432H53.4239L53.3469 13.889H53.3179C52.9949 14.322 52.5359 14.539 51.9409 14.539C51.4949 14.539 51.1349 14.396 50.8639 14.112C50.6183 13.8538 50.4859 13.5082 50.4959 13.152C50.4959 12.576 50.7359 12.137 51.2189 11.833C51.6999 11.529 52.3779 11.38 53.2509 11.387V11.3C53.2509 10.679 52.9249 10.369 52.2729 10.369C51.8079 10.369 51.3979 10.486 51.0439 10.718L50.8299 10.028C51.2679 9.75698 51.8089 9.62098 52.4469 9.62098C53.6799 9.62098 54.2969 10.271 54.2969 11.571V13.307C54.2904 13.6832 54.3131 14.0593 54.3649 14.432ZM53.2779 12.085V12.812C53.2823 13.1071 53.1399 13.385 52.8979 13.554C52.7009 13.699 52.4869 13.772 52.2559 13.772C52.0683 13.7787 51.8853 13.7128 51.7449 13.588C51.6099 13.465 51.5429 13.281 51.5429 13.035C51.5429 12.382 52.1209 12.065 53.2779 12.085ZM60.3199 14.432H59.3889L59.3399 13.675H59.3109C59.0139 14.251 58.5089 14.539 57.7979 14.539C57.2289 14.539 56.7569 14.316 56.3819 13.87C56.0069 13.424 55.8199 12.845 55.8199 12.134C55.8199 11.371 56.0229 10.753 56.4299 10.281C56.8249 9.84098 57.3099 9.62098 57.8849 9.62098C58.5189 9.62098 58.9619 9.83398 59.2139 10.261H59.2339V7.55398H60.2819V13.161C60.2819 13.62 60.2939 14.043 60.3199 14.432ZM59.2339 11.657V12.443C59.2339 12.779 59.1329 13.067 58.9319 13.306C58.7239 13.565 58.4479 13.694 58.1039 13.694C57.7209 13.694 57.4159 13.539 57.1889 13.229C56.9739 12.938 56.8669 12.56 56.8669 12.094C56.8669 11.609 56.9789 11.212 57.2029 10.901C57.4279 10.59 57.7339 10.435 58.1239 10.435C58.3816 10.4298 58.6317 10.5215 58.8249 10.692C59.1033 10.933 59.2544 11.2893 59.2339 11.657ZM66.0249 11.852C66.0249 12.04 66.0109 12.198 65.9859 12.327H62.8429C62.8559 12.793 63.0069 13.148 63.2979 13.394C63.5639 13.614 63.9059 13.724 64.3259 13.724C64.7919 13.724 65.2159 13.65 65.5969 13.501L65.7609 14.229C65.3149 14.423 64.7879 14.52 64.1799 14.52C63.4499 14.52 62.8749 14.305 62.4579 13.875C62.0409 13.445 61.8329 12.868 61.8329 12.144C61.8329 11.433 62.0259 10.841 62.4149 10.369C62.8219 9.86498 63.3709 9.61298 64.0629 9.61298C64.7419 9.61298 65.2559 9.86498 65.6049 10.369C65.8849 10.769 66.0249 11.263 66.0249 11.852ZM64.8219 10.775C64.9679 11.0173 65.0386 11.2975 65.0249 11.58H62.8429C62.8676 11.2846 62.9751 11.0021 63.1529 10.765C63.3428 10.4924 63.6559 10.3323 63.9879 10.338C64.3629 10.338 64.6399 10.484 64.8219 10.775ZM71.6409 14.432H70.5929V11.732C70.5929 10.9 70.2769 10.484 69.6429 10.484C69.3512 10.4754 69.0719 10.602 68.8859 10.827C68.694 11.052 68.5905 11.3392 68.5949 11.635V14.431H67.5469V11.065C67.5469 10.651 67.5339 10.202 67.5089 9.71598H68.4299L68.4789 10.453H68.5079C68.6299 10.224 68.8119 10.035 69.0509 9.88398C69.3349 9.70798 69.6529 9.61898 70.0009 9.61898C70.4409 9.61898 70.8069 9.76098 71.0979 10.046C71.4589 10.395 71.6409 10.916 71.6409 11.608V14.432ZM77.2949 8.76698C77.4187 8.64832 77.4857 8.48231 77.4789 8.31098C77.4789 8.12998 77.4179 7.98098 77.2949 7.86498C77.1719 7.74898 77.0199 7.68998 76.8399 7.68998C76.6579 7.68998 76.5059 7.74998 76.3829 7.86598C76.2599 7.98198 76.1989 8.13098 76.1989 8.31198C76.1989 8.49298 76.2579 8.64298 76.3789 8.76298C76.4948 8.88109 76.6545 8.9459 76.8199 8.94198C76.9952 8.9491 77.1662 8.88613 77.2949 8.76698ZM77.3629 14.432H76.3139V9.71698H77.3629V14.432ZM84.9499 14.432H85.9769H85.9779V11.636C85.9779 10.931 85.8099 10.4 85.4739 10.045C85.2029 9.75998 84.8569 9.61798 84.4349 9.61798C84.0739 9.61798 83.7529 9.71498 83.4759 9.90898C83.2549 10.057 83.0709 10.254 82.9229 10.5H82.9029C82.6759 9.91198 82.2429 9.61798 81.6019 9.61798C80.9689 9.61798 80.4899 9.88998 80.1659 10.432H80.1369L80.0879 9.71498H79.1879C79.2129 10.201 79.2249 10.65 79.2249 11.064V14.43H80.2539V11.624C80.2503 11.3363 80.3461 11.0563 80.5249 10.831C80.6875 10.6082 80.9482 10.4784 81.2239 10.483C81.5079 10.483 81.7229 10.589 81.8689 10.802C82.0139 11.015 82.0879 11.299 82.0879 11.654V14.431H83.1149V11.567C83.1099 11.2917 83.2012 11.0232 83.3729 10.808C83.5352 10.5959 83.79 10.4752 84.0569 10.484C84.6509 10.484 84.9499 10.919 84.9499 11.79V14.432Z" fill="#111111"/>
<defs>
<filter id="filter0_d" x="0" y="0" width="139" height="44" filterUnits="userSpaceOnUse" color-interpolation-filters="sRGB">
<feFlood flood-opacity="0" result="BackgroundImageFix"/>
<feColorMatrix in="SourceAlpha" type="matrix" values="0 0 0 0 0 0 0 0 0 0 0 0 0 0 0 0 0 0 127 0"/>
<feOffset dy="1"/>
<feGaussianBlur stdDeviation="1"/>
<feColorMatrix type="matrix" values="0 0 0 0 0 0 0 0 0 0 0 0 0 0 0 0 0 0 0.05 0"/>
<feBlend mode="normal" in2="BackgroundImageFix" result="effect1_dropShadow"/>
<feBlend mode="normal" in="SourceGraphic" in2="effect1_dropShadow" result="shape"/>
</filter>
</defs>
</svg>

<svg width="139" height="44" fill="none" xmlns="http://www.w3.org/2000/svg"><g filter="url(#filter0_d)"><path d="M132.197 41H6.729A4.74 4.74 0 012 36.267V5.726A4.733 4.733 0 016.729 1h125.468C134.803 1 137 3.12 137 5.726v30.541c0 2.605-2.197 4.733-4.803 4.733z" fill="#fff"/><path d="M132.197 40.5H6.73a4.24 4.24 0 01-4.23-4.233V5.727A4.233 4.233 0 016.73 1.5h125.467c2.34 0 4.303 1.907 4.303 4.226v30.541c0 2.32-1.964 4.233-4.303 4.233z" stroke="#000" stroke-opacity=".1"/></g><path fill-rule="evenodd" clip-rule="evenodd" d="M30.235 7.217c.166 1.509-.432 2.996-1.306 4.089-.912 1.076-2.371 1.898-3.792 1.793-.186-1.452.534-2.996 1.34-3.938.91-1.069 2.493-1.888 3.758-1.944zm4.652 8.704c-.159.095-2.787 1.663-2.758 4.862.033 3.864 3.379 5.14 3.42 5.153-.02.09-.524 1.844-1.78 3.623-1.047 1.568-2.145 3.1-3.89 3.127-.828.02-1.388-.22-1.971-.467-.609-.26-1.243-.529-2.235-.529-1.051 0-1.714.278-2.352.547-.553.232-1.087.457-1.841.488-1.661.062-2.93-1.672-4.016-3.225-2.171-3.171-3.861-8.936-1.595-12.859 1.098-1.924 3.1-3.163 5.24-3.196.942-.02 1.846.344 2.638.662.606.244 1.147.461 1.59.461.389 0 .915-.209 1.527-.452.965-.383 2.146-.852 3.35-.725.823.024 3.165.325 4.676 2.528l-.003.002zM55.68 32.502H53.41l-1.244-3.908h-4.324l-1.185 3.908h-2.211l4.284-13.307h2.646l4.305 13.307zm-5.014-9.023l1.125 3.475h-3.573l1.105-3.475c.222-.833.432-1.67.632-2.508h.04c.329 1.317.552 2.153.67 2.508zm16.03 4.107c0 1.633-.44 2.922-1.322 3.869-.79.844-1.771 1.264-2.942 1.264-1.264 0-2.172-.453-2.725-1.361h-.04v5.055h-2.132V26.066c0-1.027-.027-2.08-.08-3.16h1.876l.119 1.521h.04c.71-1.146 1.79-1.719 3.238-1.719 1.132 0 2.077.447 2.833 1.343.756.896 1.136 2.074 1.136 3.535zm-2.803-2.231c.422.606.632 1.375.632 2.31 0 1.014-.225 1.829-.672 2.448-.447.619-1.072.928-1.875.928-.684 0-1.24-.24-1.668-.721-.428-.481-.642-1.069-.642-1.767v-1.6c0-.171.033-.387.099-.651a2.42 2.42 0 01.839-1.372 2.212 2.212 0 011.43-.523c.777 0 1.396.315 1.857.948zm13.842 2.231c0 1.633-.441 2.922-1.324 3.869-.79.844-1.77 1.264-2.941 1.264-1.264 0-2.172-.453-2.725-1.361h-.04v5.055h-2.131V26.066c0-1.027-.027-2.08-.08-3.16h1.876l.119 1.521h.04c.71-1.146 1.79-1.719 3.239-1.719 1.13 0 2.076.447 2.834 1.343.754.896 1.133 2.074 1.133 3.535zm-2.805-2.231c.422.606.633 1.375.633 2.31 0 1.014-.225 1.829-.672 2.448-.447.619-1.072.928-1.875.928-.686 0-1.242-.241-1.67-.721-.427-.481-.641-1.069-.641-1.767v-1.6c0-.171.034-.387.099-.651a2.417 2.417 0 01.839-1.372 2.214 2.214 0 011.432-.523c.777 0 1.394.315 1.855.948zm15.145 3.416c0 1.131-.395 2.053-1.182 2.764-.867.777-2.076 1.164-3.625 1.164-1.432 0-2.582-.275-3.45-.828l.495-1.777c.934.566 1.96.85 3.08.85.805 0 1.43-.182 1.877-.545.447-.361.672-.848.672-1.453 0-.541-.186-.996-.553-1.365-.37-.369-.98-.711-1.836-1.028-2.33-.87-3.496-2.142-3.496-3.816 0-1.094.408-1.991 1.225-2.69.817-.699 1.902-1.048 3.258-1.048 1.21 0 2.219.211 3.02.632l-.532 1.738c-.75-.408-1.6-.612-2.547-.612-.75 0-1.336.185-1.758.553a1.58 1.58 0 00-.533 1.204c0 .527.205.961.613 1.303.355.316 1 .658 1.934 1.027 1.146.461 1.988 1 2.527 1.619.542.617.81 1.387.81 2.308zm4.697-4.265h2.35v-1.602h-2.35v-2.389l-2.092.632v1.757h-1.402v1.6h1.402v4.838c0 1.211.236 2.072.71 2.586.474.514 1.132.77 1.976.77.683 0 1.236-.078 1.658-.236l-.06-1.619c-.251.067-.565.1-.948.1-.828 0-1.244-.593-1.244-1.777v-4.66zm12.954 3.119c0 1.475-.422 2.686-1.264 3.633-.881.975-2.053 1.461-3.514 1.461-1.41 0-2.531-.467-3.367-1.4-.836-.936-1.254-2.113-1.254-3.535 0-1.486.432-2.705 1.293-3.652.863-.947 2.025-1.422 3.486-1.422 1.408 0 2.539.468 3.395 1.402.816.908 1.225 2.079 1.225 3.513zm-2.783-2.207c.381.632.572 1.392.572 2.277 0 .884-.198 1.651-.591 2.296-.461.777-1.1 1.168-1.916 1.168-.831 0-1.475-.382-1.936-1.148-.381-.632-.572-1.392-.572-2.277 0-.911.191-1.683.572-2.316.447-.765 1.1-1.148 1.955-1.148.83 0 1.469.382 1.916 1.148zm9.712-.636a3.592 3.592 0 00-.67-.06c-.752 0-1.33.283-1.738.85-.355.5-.533 1.133-.533 1.896v5.034h-2.133l.02-6.574c0-1.105-.025-2.113-.078-3.021h1.855l.08 1.836h.059c.223-.631.578-1.138 1.066-1.52a2.573 2.573 0 011.539-.514c.197 0 .375.014.533.039v2.034zm9.457 3.436c.053-.263.08-.585.08-.968 0-1.197-.283-2.204-.848-3.019-.711-1.026-1.758-1.54-3.139-1.54-1.408 0-2.527.514-3.357 1.54-.789.961-1.184 2.165-1.184 3.613 0 1.473.423 2.649 1.273 3.524.848.874 2.016 1.312 3.504 1.312 1.237 0 2.311-.197 3.219-.592l-.336-1.48c-.777.303-1.639.453-2.586.453-.856 0-1.555-.223-2.094-.67-.592-.5-.903-1.225-.928-2.173h6.396zm-1.953-1.521c.012-.631-.127-1.178-.416-1.639-.367-.592-.934-.889-1.697-.889-.697 0-1.264.29-1.697.869-.355.461-.566 1.014-.633 1.658h4.443v.001zM45.712 14.432h3.715v-.883H46.76V7.894h-1.048v6.538zm8.653 0h-.941l-.077-.543h-.03c-.322.433-.781.65-1.376.65-.446 0-.806-.143-1.077-.427a1.338 1.338 0 01-.368-.96c0-.576.24-1.015.723-1.319.48-.304 1.159-.453 2.032-.446V11.3c0-.621-.326-.931-.978-.931-.465 0-.875.117-1.23.349l-.213-.69c.438-.271.979-.407 1.617-.407 1.233 0 1.85.65 1.85 1.95v1.736a7.26 7.26 0 00.068 1.125zm-1.087-2.347v.727a.889.889 0 01-.38.742 1.061 1.061 0 01-.642.218.73.73 0 01-.511-.184c-.135-.123-.202-.307-.202-.553 0-.653.578-.97 1.735-.95zm7.042 2.347h-.931l-.05-.757h-.028c-.297.576-.802.864-1.513.864-.57 0-1.041-.223-1.416-.669-.375-.446-.562-1.025-.562-1.736 0-.763.203-1.381.61-1.853.395-.44.88-.66 1.455-.66.634 0 1.077.213 1.329.64h.02V7.554h1.048v5.607c0 .459.012.882.038 1.271zm-1.086-2.775v.786c0 .336-.101.624-.302.863a1.008 1.008 0 01-.828.388c-.383 0-.688-.155-.915-.465-.215-.291-.322-.669-.322-1.135 0-.485.112-.882.336-1.193.225-.311.53-.466.92-.466.259-.005.509.086.702.257.278.241.43.597.409.965zm6.79.195c0 .188-.013.346-.038.475h-3.143c.013.466.164.821.455 1.067.266.22.608.33 1.028.33.466 0 .89-.074 1.27-.223l.165.728c-.446.194-.973.291-1.581.291-.73 0-1.305-.215-1.722-.645-.417-.43-.625-1.007-.625-1.731 0-.711.193-1.303.582-1.775.407-.504.956-.756 1.648-.756.679 0 1.193.252 1.542.756.28.4.42.894.42 1.483zm-1.202-1.077c.146.242.217.522.203.805h-2.182c.025-.295.132-.578.31-.815a.997.997 0 01.835-.427c.375 0 .652.146.834.437zm6.819 3.657h-1.048v-2.7c0-.832-.316-1.248-.95-1.248a.946.946 0 00-.757.343 1.217 1.217 0 00-.291.808v2.796h-1.048v-3.366a26.4 26.4 0 00-.038-1.349h.92l.05.737h.029c.122-.229.304-.418.543-.569.284-.176.602-.265.95-.265.44 0 .806.142 1.097.427.36.349.543.87.543 1.562v2.824zm5.654-5.665a.599.599 0 00.184-.456.586.586 0 00-.184-.446.64.64 0 00-.455-.175.642.642 0 00-.457.176.586.586 0 00-.184.446c0 .181.059.331.18.451a.598.598 0 00.44.179.66.66 0 00.476-.175zm.068 5.665h-1.05V9.717h1.05v4.715zm7.587 0h1.027v-2.796c0-.705-.167-1.236-.503-1.591-.271-.285-.617-.427-1.04-.427-.36 0-.681.097-.958.291a1.838 1.838 0 00-.553.591h-.02c-.227-.588-.66-.882-1.301-.882-.633 0-1.112.272-1.436.814h-.03l-.048-.717h-.9c.025.486.037.935.037 1.349v3.366h1.029v-2.806a1.25 1.25 0 01.27-.793.848.848 0 01.7-.348c.284 0 .499.106.645.319.145.213.219.497.219.852v2.777h1.027v-2.864a1.183 1.183 0 01.258-.759.827.827 0 01.684-.324c.594 0 .893.435.893 1.306v2.642z" fill="#111"/><defs><filter id="filter0_d" x="0" y="0" width="139" height="44" filterUnits="userSpaceOnUse" color-interpolation-filters="sRGB"><feFlood flood-opacity="0" result="BackgroundImageFix"/><feColorMatrix in="SourceAlpha" values="0 0 0 0 0 0 0 0 0 0 0 0 0 0 0 0 0 0 127 0"/><feOffset dy="1"/><feGaussianBlur stdDeviation="1"/><feColorMatrix values="0 0 0 0 0 0 0 0 0 0 0 0 0 0 0 0 0 0 0.05 0"/><feBlend in2="BackgroundImageFix" result="effect1_dropShadow"/><feBlend in="SourceGraphic" in2="effect1_dropShadow" result="shape"/></filter></defs></svg>
